rospo-icon-theme-classic-common/32x32/places/folder-magenta-development.svg

<svg height="32" width="32" xmlns="http://www.w3.org/2000/svg"><rect height="16" opacity=".2" rx="1.25" width="25" x="3" y="12"/><path d="m3 21.75c0 .692.5575 1.25 1.25 1.25h22.5c.692 0 1.25-.558 1.25-1.25v-13.5c0-.6925-.558-1.25-1.25-1.25h-12.75v-.75c0-.6925-.557-1.25-1.25-1.25h-8.5c-.6925 0-1.25.5575-1.25 1.25" fill="#b259b8"/><rect height="16" opacity=".2" rx="1.25" width="25" x="3" y="10"/><rect fill="#e4e4e4" height="10" rx="1.25" width="21" x="5" y="9"/><rect fill="#ca71df" height="16" rx="1.25" width="25" x="3" y="11"/><path d="m4.25 5c-.6925 0-1.25.5575-1.25 1.25v1c0-.6925.5575-1.25 1.25-1.25h8.5c.693 0 1.25.5575 1.25 1.25v.75h12.75c.692 0 1.25.5575 1.25 1.25v-1c0-.6925-.558-1.25-1.25-1.25h-12.75v-.75c0-.6925-.557-1.25-1.25-1.25z" fill="#fff" opacity=".1"/><path d="m14.738 14v .002l-.111 1.316a3.9641 3.9283 0 0 0 -1.158.664l-1.207-.564-1.262 2.166 1.098.756a3.9641 3.9283 0 0 0 -.063.662 3.9641 3.9283 0 0 0  .059.666l-1.094.75 1.262 2.166 1.205-.564a3.9641 3.9283 0 0 0 1.162.662l.109 1.318h2.524l.111-1.316a3.9641 3.9283 0 0 0 1.158-.664l1.207.562 1.262-2.164-1.096-.754a3.9641 3.9283 0 0 0  .059-.664 3.9641 3.9283 0 0 0 -.059-.664l1.094-.754-1.26-2.164-1.207.562a3.9641 3.9283 0 0 0 -1.16-.66l-.109-1.32zm1.262 3a2 2 0 0 1 2 2 2 2 0 0 1 -2 2 2 2 0 0 1 -2-2 2 2 0 0 1 2-2z" fill="#47274e"/></svg>

<svg xmlns="http://www.w3.org/2000/svg" width="32" height="32" version="1">
 <rect style="opacity:0.2" width="25" height="16" x="3" y="12" rx="1.25" ry="1.25"/>
 <path style="fill:#b259b8" d="M 3,21.75 C 3,22.442 3.5575,23 4.25,23 H 26.75 C 27.442,23 28,22.442 28,21.75 V 8.25 C 28,7.5575 27.442,7 26.75,7 H 14 V 6.25 C 14,5.5575 13.443,5 12.75,5 H 4.25 C 3.5575,5 3,5.5575 3,6.25"/>
 <rect style="opacity:0.2" width="25" height="16" x="3" y="10" rx="1.25" ry="1.25"/>
 <rect style="fill:#dcdcdc" width="21" height="10" x="5" y="9" rx="1.25" ry="1.25"/>
 <rect style="fill:#ca71df" width="25" height="16" x="3" y="11" rx="1.25" ry="1.25"/>
 <path style="opacity:0.1;fill:#ffffff" d="M 4.25 5 C 3.5575 5 3 5.5575 3 6.25 L 3 7.25 C 3 6.5575 3.5575 6 4.25 6 L 12.75 6 C 13.443 6 14 6.5575 14 7.25 L 14 8 L 26.75 8 C 27.442 8 28 8.5575 28 9.25 L 28 8.25 C 28 7.5575 27.442 7 26.75 7 L 14 7 L 14 6.25 C 14 5.5575 13.443 5 12.75 5 L 4.25 5 z"/>
 <path style="fill:#47274e" d="M 14.738,14 V 14.002 L 14.627,15.318 A 3.9641,3.9283 0 0 0 13.469,15.982 L 12.262,15.418 11,17.584 12.098,18.34 A 3.9641,3.9283 0 0 0 12.035,19.002 3.9641,3.9283 0 0 0 12.094,19.668 L 11,20.418 12.262,22.584 13.467,22.02 A 3.9641,3.9283 0 0 0 14.629,22.682 L 14.738,24 H 17.262 L 17.373,22.684 A 3.9641,3.9283 0 0 0 18.531,22.02 L 19.738,22.582 21,20.418 19.904,19.664 A 3.9641,3.9283 0 0 0 19.963,19 3.9641,3.9283 0 0 0 19.904,18.336 L 20.998,17.582 19.738,15.418 18.531,15.98 A 3.9641,3.9283 0 0 0 17.371,15.32 L 17.262,14 Z M 16,17 A 2,2 0 0 1 18,19 2,2 0 0 1 16,21 2,2 0 0 1 14,19 2,2 0 0 1 16,17 Z"/>
</svg>
